svgs/sharp-light/chair-office.svg

<svg xmlns="http://www.w3.org/2000/svg" viewBox="0 0 448 512"><!--! Font Awesome Pro 6.6.0 by @fontawesome - https://fontawesome.com License - https://fontawesome.com/license (Commercial License) Copyright 2024 Fonticons, Inc. --><path d="M320 32l0 192 32 0 0-192 0-32L320 0 128 0 96 0l0 32 0 192 32 0 0-192 192 0zM240 432l0-48 144 0 32 0 0-32-48-96L80 256 32 352l0 32 32 0 144 0 0 48-64 0-16 0 0 16 0 48 0 16 32 0 0-16 0-32 48 0 0 32 0 16 32 0 0-16 0-32 48 0 0 32 0 16 32 0 0-16 0-48 0-16-16 0-64 0zM64 128l-32 0 0 16 0 80 0 16 32 0 0-16 0-80 0-16zm352 0l-32 0 0 16 0 80 0 16 32 0 0-16 0-80 0-16zM99.8 288l248.4 0 32 64L240 352l-32 0L67.8 352l32-64z"/></svg>

<svg xmlns="http://www.w3.org/2000/svg" viewBox="0 0 448 512"><!--! Font Awesome Pro 6.4.0 by @fontawesome - https://fontawesome.com License - https://fontawesome.com/license (Commercial License) Copyright 2023 Fonticons, Inc. --><path d="M320 32V224h32V32 0H320 128 96V32 224h32V32H320zM240 432V384H384h32V352l-48-96H80L32 352v32H64 208v48H144 128v16 48 16h32V496 464h48v32 16h32V496 464h48v32 16h32V496 448 432H304 240zM64 128H32v16 80 16H64V224 144 128zm352 0H384v16 80 16h32V224 144 128zM99.8 288H348.2l32 64H240 208 67.8l32-64z"/></svg>
